images_elementary_svg/cmd/32/ca/bold.svg

<svg height="32" width="32" xmlns="http://www.w3.org/2000/svg" xmlns:xlink="http://www.w3.org/1999/xlink"><radialGradient id="a" cx="13.201247" cy="12.676107" gradientTransform="matrix(.14879841 3.7199544 -2.819107 .11276447 46.972225 -39.269329)" gradientUnits="userSpaceOnUse" r="6.700386"><stop offset="0" stop-color="#737373"/><stop offset=".26238" stop-color="#636363"/><stop offset=".704952" stop-color="#4b4b4b"/><stop offset="1" stop-color="#3f3f3f"/></radialGradient><radialGradient id="b" cx="40" cy="43.5" gradientTransform="matrix(1 0 0 .75 -17.477723 12.255881)" gradientUnits="userSpaceOnUse" r="2" xlink:href="#e"/><radialGradient id="c" cx="9" cy="43.5" gradientTransform="matrix(1 0 0 .75 8.689347 12.255881)" gradientUnits="userSpaceOnUse" r="2" xlink:href="#e"/><linearGradient id="d" gradientUnits="userSpaceOnUse" x1="29.689347" x2="29.689347" xlink:href="#f" y1="46.380881" y2="43.380881"/><linearGradient id="e"><stop offset="0"/><stop offset="1" stop-opacity="0"/></linearGradient><linearGradient id="f" gradientUnits="userSpaceOnUse" x1="17" x2="17" y1="46.5" y2="43.5"><stop offset="0" stop-opacity="0"/><stop offset=".5"/><stop offset="1" stop-opacity="0"/></linearGradient><radialGradient id="g" cx="40" cy="43.5" gradientTransform="matrix(1 0 0 .75 -31.185633 12.375)" gradientUnits="userSpaceOnUse" r="2" xlink:href="#e"/><radialGradient id="h" cx="9" cy="43.5" gradientTransform="matrix(1 0 0 .75 -4 12.375)" gradientUnits="userSpaceOnUse" r="2" xlink:href="#e"/><path d="m20.935483 28.268246h-4.264375l-6.239226-12.001015h-.09766q.0651.835513.108508 1.660176.0434.705304.0651 1.486564.03255.770408.03255 1.388906v7.465369h-3.0056689v-15.86391h4.2426739l6.228374 11.881656h.0651q-.03255-.824663-.07596-1.627624-.01085-.347226-.03255-.705304-.01085-.368928-.0217-.727005-.01085-.368928-.0217-.705304 0-.336376 0-.607646v-7.508773h3.01653z" fill="url(#a)" transform="matrix(1.3235144 0 0 1.32351432 -1.472041 -10.913521)"/><g transform="matrix(.98177497 0 0 1.313771 3.888192 -31.933857)"><path d="m8.8143665 43.5v3h.5c.8310005 0 1.5000005-.669 1.5000005-1.5s-.669-1.5-1.5000005-1.5z" fill="url(#g)" opacity=".2"/><path d="m4.40625 43.5c-.7790625 0-1.40625.627187-1.40625 1.40625v.1875c0 .779063.6271875 1.40625 1.40625 1.40625h.59375v-3z" fill="url(#h)" opacity=".2"/><path d="m5 43.5h3.8143665v3h-3.8143665z" fill="url(#f)" opacity=".2"/><path d="m22.522277 43.380881v3h.5c.831 0 1.5-.669 1.5-1.5s-.669-1.5-1.5-1.5z" fill="url(#b)" opacity=".2"/><path d="m17.095597 43.380881c-.779062 0-1.40625.627187-1.40625 1.40625v.1875c0 .779063.627188 1.40625 1.40625 1.40625h.59375v-3z" fill="url(#c)" opacity=".2"/><path d="m17.689347 43.380881h4.83293v3h-4.83293z" fill="url(#d)" opacity=".2"/></g><path d="m20.935483 28.268246h-4.264375l-6.239226-12.001015h-.09766q.0651.835513.108508 1.660176.0434.705304.0651 1.486564.03255.770408.03255 1.388906v7.465369h-3.0056689v-15.86391h4.2426739l6.228374 11.881656h.0651q-.03255-.824663-.07596-1.627624-.01085-.347226-.03255-.705304-.01085-.368928-.0217-.727005-.01085-.368928-.0217-.705304 0-.336376 0-.607646v-7.508773h3.01653z" fill="none" opacity=".61" stroke="#000" stroke-width=".755564" transform="matrix(1.3235144 0 0 1.32351432 -1.472041 -10.913521)"/><path d="m8.5 5.5039062v1.5h5.615234l8.244141 15.7246098h.0625c-.022474-.509002-.045715-1.017623-.072266-1.517578l-8.234375-15.7070318zm13.744141 0v1.5h3.992187v-1.5zm-10.00586 7.1132818c.041007.567763.081747 1.135214.111328 1.697265.038297.62232.06679 1.277458.085938 1.966797.028722.679765.042969 1.292164.042969 1.837891v-1.5c0-.545727-.014247-1.158126-.042969-1.837891-.019148-.689339-.047641-1.344477-.085938-1.966797-.003335-.063366-.008238-.127967-.011718-.191406l-.003907-.005859z" fill="#fff" opacity=".2" transform="matrix(1.00000001 0 0 1 .000001 0)"/></svg>

<?xml version="1.0" encoding="UTF-8" standalone="no"?>
<svg
   xmlns:dc="http://purl.org/dc/elements/1.1/"
   xmlns:cc="http://creativecommons.org/ns#"
   xmlns:rdf="http://www.w3.org/1999/02/22-rdf-syntax-ns#"
   xmlns:svg="http://www.w3.org/2000/svg"
   xmlns="http://www.w3.org/2000/svg"
   xmlns:xlink="http://www.w3.org/1999/xlink"
   xmlns:sodipodi="http://sodipodi.sourceforge.net/DTD/sodipodi-0.dtd"
   xmlns:inkscape="http://www.inkscape.org/namespaces/inkscape"
   height="32"
   width="32"
   version="1.1"
   id="svg41"
   sodipodi:docname="bold.svg"
   inkscape:version="0.92.4 (unknown)"
   inkscape:export-filename="/home/rizmut/Dokumen/Rizmut/Github/libreoffice-style-elementary/images_elementary/cmd/32/ca/bold.png"
   inkscape:export-xdpi="96"
   inkscape:export-ydpi="96">
  <metadata
     id="metadata47">
    <rdf:RDF>
      <cc:Work
         rdf:about="">
        <dc:format>image/svg+xml</dc:format>
        <dc:type
           rdf:resource="http://purl.org/dc/dcmitype/StillImage" />
        <dc:title />
      </cc:Work>
    </rdf:RDF>
  </metadata>
  <defs
     id="defs45">
    <radialGradient
       inkscape:collect="always"
       xlink:href="#c"
       id="radialGradient860"
       cx="13.201247"
       cy="12.676107"
       fx="13.201247"
       fy="12.676107"
       r="6.7003856"
       gradientTransform="matrix(0.14879841,3.7199544,-2.819107,0.11276447,46.972225,-39.269329)"
       gradientUnits="userSpaceOnUse" />
    <radialGradient
       inkscape:collect="always"
       xlink:href="#a"
       id="radialGradient883"
       gradientUnits="userSpaceOnUse"
       gradientTransform="matrix(1,0,0,0.75,-17.477723,12.255881)"
       cx="40"
       cy="43.5"
       r="2" />
    <radialGradient
       inkscape:collect="always"
       xlink:href="#a"
       id="radialGradient885"
       gradientUnits="userSpaceOnUse"
       gradientTransform="matrix(1,0,0,0.75,8.689347,12.255881)"
       cx="9"
       cy="43.5"
       r="2" />
    <linearGradient
       inkscape:collect="always"
       xlink:href="#b"
       id="linearGradient887"
       gradientUnits="userSpaceOnUse"
       x1="17"
       y1="46.5"
       x2="17"
       y2="43.5"
       gradientTransform="translate(12.689347,-0.11911855)" />
  </defs>
  <sodipodi:namedview
     pagecolor="#ffffff"
     bordercolor="#666666"
     borderopacity="1"
     objecttolerance="10"
     gridtolerance="10"
     guidetolerance="10"
     inkscape:pageopacity="0"
     inkscape:pageshadow="2"
     inkscape:window-width="1366"
     inkscape:window-height="714"
     id="namedview43"
     showgrid="true"
     inkscape:zoom="16"
     inkscape:cx="5.8610522"
     inkscape:cy="16.68223"
     inkscape:window-x="0"
     inkscape:window-y="28"
     inkscape:window-maximized="1"
     inkscape:current-layer="g39">
    <inkscape:grid
       type="xygrid"
       id="grid854" />
  </sodipodi:namedview>
  <linearGradient
     id="a">
    <stop
       offset="0"
       id="stop2" />
    <stop
       offset="1"
       stop-opacity="0"
       id="stop4" />
  </linearGradient>
  <linearGradient
     id="b"
     gradientUnits="userSpaceOnUse"
     x1="17"
     x2="17"
     y1="46.5"
     y2="43.5">
    <stop
       offset="0"
       stop-opacity="0"
       id="stop7" />
    <stop
       offset=".5"
       id="stop9" />
    <stop
       offset="1"
       stop-opacity="0"
       id="stop11" />
  </linearGradient>
  <radialGradient
     id="c"
     cx="13.325464"
     cy="8.331412"
     gradientTransform="matrix(-3.7117719 .11187051 -.21033005 -6.7825606 65.528784 64.934853)"
     gradientUnits="userSpaceOnUse"
     r="5.349211">
    <stop
       offset="0"
       stop-color="#737373"
       id="stop14" />
    <stop
       offset=".26238"
       stop-color="#636363"
       id="stop16" />
    <stop
       offset=".704952"
       stop-color="#4b4b4b"
       id="stop18" />
    <stop
       offset="1"
       stop-color="#3f3f3f"
       id="stop20" />
  </radialGradient>
  <radialGradient
     id="d"
     cx="40"
     cy="43.5"
     gradientTransform="matrix(1,0,0,0.75,-31.185633,12.375)"
     gradientUnits="userSpaceOnUse"
     r="2"
     xlink:href="#a" />
  <radialGradient
     id="e"
     cx="9"
     cy="43.5"
     gradientTransform="matrix(1 0 0 .75 -4 12.375)"
     gradientUnits="userSpaceOnUse"
     r="2"
     xlink:href="#a" />
  <g
     transform="matrix(1.33333 0 0 1.313771 -1.472041 -10.913521)"
     id="g39">
    <g
       aria-label="N"
       transform="scale(0.99263828,1.0074163)"
       style="font-style:normal;font-weight:normal;font-size:22.22249413px;line-height:1.25;font-family:sans-serif;letter-spacing:0px;word-spacing:0px;fill:url(#radialGradient860);fill-opacity:1;stroke:none;stroke-width:0.55556238"
       id="text858">
      <path
         d="M 20.935483,28.268246 H 16.671108 L 10.431882,16.267231 h -0.09766 q 0.0651,0.835513 0.108508,1.660176 0.0434,0.705304 0.0651,1.486564 0.03255,0.770408 0.03255,1.388906 v 7.465369 H 7.5347111 v -15.86391 h 4.2426739 l 6.228374,11.881656 h 0.0651 q -0.03255,-0.824663 -0.07596,-1.627624 -0.01085,-0.347226 -0.03255,-0.705304 -0.01085,-0.368928 -0.0217,-0.727005 -0.01085,-0.368928 -0.0217,-0.705304 0,-0.336376 0,-0.607646 v -7.508773 h 3.01653 z"
         style="font-style:normal;font-variant:normal;font-weight:bold;font-stretch:normal;font-family:'Droid Sans';-inkscape-font-specification:'Droid Sans Bold';fill:url(#radialGradient860);fill-opacity:1;stroke-width:0.55556238"
         id="path2154" />
    </g>
    <g
       transform="matrix(.73633307 0 0 1 4.020185 -16)"
       id="g31">
      <path
         d="m 8.8143665,43.5 v 3 h 0.5 c 0.8310005,0 1.5000005,-0.669 1.5000005,-1.5 0,-0.831 -0.669,-1.5 -1.5000005,-1.5 z"
         id="path25"
         style="opacity:0.2;fill:url(#d)"
         inkscape:connector-curvature="0" />
      <path
         d="m4.40625 43.5c-.7790625 0-1.40625.627187-1.40625 1.40625v.1875c0 .779063.6271875 1.40625 1.40625 1.40625h.59375v-3z"
         fill="url(#e)"
         opacity=".2"
         id="path27" />
      <path
         d="m 5,43.5 h 3.8143665 v 3 H 5 Z"
         id="path29"
         inkscape:connector-curvature="0"
         style="opacity:0.2;fill:url(#b)"
         sodipodi:nodetypes="ccccc" />
      <path
         inkscape:connector-curvature="0"
         style="opacity:0.2;fill:url(#radialGradient883)"
         id="path877"
         d="m 22.522277,43.380881 v 3 h 0.5 c 0.831,0 1.5,-0.669 1.5,-1.5 0,-0.831 -0.669,-1.5 -1.5,-1.5 z" />
      <path
         id="path879"
         d="m 17.095597,43.380881 c -0.779062,0 -1.40625,0.627187 -1.40625,1.40625 v 0.1875 c 0,0.779063 0.627188,1.40625 1.40625,1.40625 h 0.59375 v -3 z"
         style="opacity:0.2;fill:url(#radialGradient885)"
         inkscape:connector-curvature="0" />
      <path
         sodipodi:nodetypes="ccccc"
         style="opacity:0.2;fill:url(#linearGradient887)"
         inkscape:connector-curvature="0"
         id="path881"
         d="m 17.689347,43.380881 4.83293,0 v 3 l -4.83293,0 z" />
    </g>
    <g
       aria-label="N"
       transform="scale(0.99263828,1.0074163)"
       style="font-style:normal;font-weight:normal;font-size:22.22249413px;line-height:1.25;font-family:sans-serif;letter-spacing:0px;word-spacing:0px;opacity:0.61000001;fill:none;fill-opacity:1;stroke:#000000;stroke-width:0.75556415;stroke-miterlimit:4;stroke-dasharray:none;stroke-opacity:1"
       id="text866">
      <path
         d="M 20.935483,28.268246 H 16.671108 L 10.431882,16.267231 h -0.09766 q 0.0651,0.835513 0.108508,1.660176 0.0434,0.705304 0.0651,1.486564 0.03255,0.770408 0.03255,1.388906 v 7.465369 H 7.5347111 v -15.86391 h 4.2426739 l 6.228374,11.881656 h 0.0651 q -0.03255,-0.824663 -0.07596,-1.627624 -0.01085,-0.347226 -0.03255,-0.705304 -0.01085,-0.368928 -0.0217,-0.727005 -0.01085,-0.368928 -0.0217,-0.705304 0,-0.336376 0,-0.607646 v -7.508773 h 3.01653 z"
         style="font-style:normal;font-variant:normal;font-weight:bold;font-stretch:normal;font-family:'Droid Sans';-inkscape-font-specification:'Droid Sans Bold';fill:none;fill-opacity:1;stroke:#000000;stroke-width:0.75556415;stroke-miterlimit:4;stroke-dasharray:none;stroke-opacity:1"
         id="path2151" />
    </g>
    <path
       style="font-style:normal;font-weight:normal;font-size:22.22249413px;line-height:1.25;font-family:sans-serif;letter-spacing:0px;word-spacing:0px;opacity:0.2;fill:#ffffff;fill-opacity:1;stroke:none;stroke-width:1;stroke-miterlimit:4;stroke-dasharray:none;stroke-opacity:1"
       d="M 8.5 5.5039062 L 8.5 7.0039062 L 14.115234 7.0039062 L 22.359375 22.728516 L 22.421875 22.728516 C 22.399401 22.219514 22.37616 21.710893 22.349609 21.210938 L 14.115234 5.5039062 L 8.5 5.5039062 z M 22.244141 5.5039062 L 22.244141 7.0039062 L 26.236328 7.0039062 L 26.236328 5.5039062 L 22.244141 5.5039062 z M 12.238281 12.617188 C 12.279288 13.184951 12.320028 13.752402 12.349609 14.314453 C 12.387906 14.936773 12.416399 15.591911 12.435547 16.28125 C 12.464269 16.961015 12.478516 17.573414 12.478516 18.119141 L 12.478516 16.619141 C 12.478516 16.073414 12.464269 15.461015 12.435547 14.78125 C 12.416399 14.091911 12.387906 13.436773 12.349609 12.814453 C 12.346274 12.751087 12.341371 12.686486 12.337891 12.623047 L 12.333984 12.617188 L 12.238281 12.617188 z "
       transform="matrix(0.75000188,0,0,0.76116766,1.1040335,8.3070193)"
       id="text870" />
  </g>
</svg>
